public/avatar/hat/248.svg

<svg xmlns:xlink="http://www.w3.org/1999/xlink" height="92.9" width="100.7" xmlns="http://www.w3.org/2000/svg"><use height="35.9" transform="translate(19.35 33.25)" width="38.6" xlink:href="#a"/><defs><g id="a" fill-rule="evenodd"><path d="m-1.25-5.7.8-2 .95 2Q2.55-.65 6.05 2.25q6.15 5.25 7.9 7.9.8 1.2.8 2.9 0 1.25-.5 2.3Q12.6 18.7 6.7 19.2l-2.35.2 1.7-1.65Q9.2 14.7 9.1 11.3q0-2.45-1.9-4.1-1.6-1.45-3.35-1.3-1.3.1-2.6 1.15l-1.05 1-.7.9-.65-.9Q-2.6 6.1-4.6 5.9q-1.65-.25-3.35 1.3-1.8 1.65-1.9 4.1-.1 3.35 3.1 6.45l1.65 1.65-2.35-.2q-5.85-.5-7.5-3.85-.55-1.05-.55-2.3 0-1.7.8-2.9 1.8-2.75 7.95-7.9 3.4-2.85 5.5-7.95" transform="translate(19.3 16.5)"/><path d="m-.4-5.5.05-.1v.1Q2.15.1 5.5 2.95q6 5 7.75 7.65 1.25 1.9.3 4.2-1.3 3.1-6.9 3.6 2.9-2.85 3.3-6.1.4-3.45-2.15-5.7Q5 4.05 2 5.55l-2.45 2q-.9-1.25-2.35-2-2.9-1.5-5.7 1.05-2.55 2.25-2.15 5.7.4 3.25 3.3 6.1-5.6-.5-6.95-3.6-.95-2.3.3-4.2 1.9-2.75 7.8-7.65Q-2.45-.3-.4-5.5" fill="#ffc032" transform="translate(19.3 16.5)"/><path d="m-7.35 18.4-3.7-.7q-3.65-1.4-3.55-4.85.05-2.15 2.5-4.75l2.45-2.15-1.15 1.25q-1.3 1.55-1.8 3.1-1.55 5 5.25 8.1m7-24.3-.1 3.3-2.5 3.6 1.25 1.75-1.7-.3q-1.85-.1-3.4 1.05 2.3-1.8 4.25-4.8Q-.7-4.1-.35-5.9" fill="#ffff9a" transform="translate(19.3 16.5)"/><path d="m.4 6.55-.85 1V4.9L1.8 1.35 6.15 4.8Q8.9 6.35 9.8 9.4q-2.75-5-6.1-4.35-2.05.4-3.3 1.5" fill="#c27400" transform="translate(19.3 16.5)"/><path d="M-.4 4.25-2.5 1.2-.4-2l1.9 3.2-1.9 3.05" fill="#c2289a" transform="translate(19.3 16.5)"/><path d="M-2.5 1.1-.4-2l-.05 3.1H-2.5" fill="#ff4eff" transform="translate(19.3 16.5)"/><path d="M-.4 1.1h1.9L-.4 4.25V1.1" fill="#6f0ab1" transform="translate(19.3 16.5)"/><path d="M6.65 18.4q4.3-3.75 3.15-9 1.45 3.4 1.1 5.1-.5 2.25-4.25 3.9" fill="#ffff9a" transform="translate(19.3 16.5)"/><path d="M-8.3 6.4q-2.85 2.05-2.1 6.2.4 2.1 1.35 3.75-1.2-1.6-1.8-3.75-1.2-4.3 1.75-6.9 2.9-2.55 5.75-.9 1.45.8 2.3 2.15-2.7-3.75-7.25-.55m18.95 1.3 1.7 1.8q1.9 2.35 1.55 3.85-.9 4.4-7.15 5 5.1-1.4 5.85-4.8.65-2.9-1.95-5.85" fill="#c27400" transform="translate(19.3 16.5)"/><path d="M-9.95-15.45q1.65-1.9 3.45-.35.7.6.65 1.4L-6-10.35q.15 2.3 1.8 8.75 1 5.9-1.65 8.5-5.7 5.6-10.05 3.6-1.55-.7-2.25-2.05-.65-1.3 0-1.8Q-19.2 5.9-19.3 4q-.15-2.05 1.3-2.3-1.4-2.8 1.75-2.75-1.1-2.5-.4-4.45.7-1.95 2.55-1.55-.6-2.45.25-3.95.8-1.6 2.5-.85-.15-1.9 1.4-3.6" transform="translate(19.3 16.5)"/><path d="M-8.65-15.45q.8-.35 1.6.3l.35.35-.05.6-.1 3.9.95 4.85q2.15 9.1-.55 11.7-5.7 5.65-9.7 3.15-1.45-1-1.45-2.05v-.1l.65-.8-.75-.5q-.75-.55-.75-2.25l.05-.55q.1-.45.55-.6l1.1-.2-.5-1-.3-1.05V.05l1.25-.25 1.4.05-.6-1.25q-1.25-2.85-.05-4.45.5-.6 1.25-.35l1.35.3-.3-1.35q-.65-2.8.45-3.8l1.15-.05 1.25.55-.1-1.4q-.2-2.4 1.85-3.5" fill="#fff" transform="translate(19.3 16.5)"/><path d="M-8.3-14.95q.3-.15.5 1.15l-.15 2.4.05 1.65 1.45 6.5-.75-.15q-.8 0-1.1.65-.45 1.05.1 3.3l-1.6.8q-.7.85.3 2.6l-1.15.85q-.4.55 0 1.55l-.4-.15q-.5-.05-.75.5-.3.75-.1 1.65.25.95.95.95-.2.45-1.85.7-1.85.3-2.9-.4-1.05-.6-1.25-1.35l-.05-.8.75-.35-1.05-1.6q-.55-.55-.55-1.75l.05-.45.1-.2 1.6.3-.8-3h.65l1.9.45-.55-2.45q-1.15-2.6-.15-3.85l.7-.2 1.8 1-.1-2.7q-.55-2.5.3-3.25l.5.05 1.7 1 .3-2.45q-.25-2.05 1.55-2.95" fill="#cbcbcb" transform="translate(19.3 16.5)"/><path d="m-10.4-12.7.05 2.1q.45 3.15 2.3 8.5-3.05-6.6-3.25-9.85-.05-1.05.4-1l.5.25m-3.05 4.4.45 2.05q.95 3.05 3.75 8Q-13.4-4.2-14.2-7.4q-.2-1 .25-1.05l.5.15M-16-2.85l.75 1.75q1.35 2.45 4.6 6-4.75-4.2-5.8-6.65-.35-.8 0-1l.45-.1m-1.65 3 .6 1.65q1.15 2.05 3.85 4.35-3.95-2.65-4.9-4.9-.35-.8 0-1l.45-.1m-.7 4.9 1.05 1.1 3.25 2.15q-3.25-1-4.25-2.05-.6-.6-.4-.95l.35-.25" transform="translate(19.3 16.5)"/><path d="m-9.95-8.8 2.45 5.4-.75.55q-1.5-3.6-1.7-5.95m.45 10q-1.85-3.3-2.75-5.65l3.5 5.1-.75.55m-4.7-.9 4.2 3.85-.75.6Q-12.95 2.6-14.2.3m-1.2 3.6 4.65 2.45-.8.6Q-13.7 6-15.4 3.9m-.3 3.4 4.35.5-.5.85q-1.55.1-3.85-1.35" fill="#fff" transform="translate(19.3 16.5)"/><path d="M2.45 5.35-.4 7.45l.5-1.3q.75-1.4 2.05-1.7Q4.3 4 6.05 5.5l-3.6-.15" fill="#925100" transform="translate(19.3 16.5)"/><path d="M10-15.45q1.55 1.7 1.35 3.6 1.7-.75 2.55.85.8 1.5.2 3.95 1.85-.4 2.6 1.55.7 1.95-.45 4.45Q19.4-1.1 18 1.7q1.4.25 1.3 2.3-.15 1.95-1.15 2.65.65.5 0 1.8-.7 1.35-2.2 2.05-4.4 2-10.05-3.6-2.65-2.6-1.65-8.5 1.7-6.45 1.8-8.75l-.1-4.05q-.1-.8.6-1.4 1.8-1.55 3.45.35" transform="translate(19.3 16.5)"/><path d="M8.7-15.45q1.95 1.05 1.85 3.5l-.15 1.4 1.3-.55 1.1.05q1.1.95.5 3.8l-.35 1.35 1.35-.3q.75-.2 1.25.35 1.2 1.6-.05 4.45l-.55 1.25L16.3-.2l1.25.25V.3l-.3 1.05-.5 1 1.1.2q.45.15.55.6l.05.55q0 1.7-.75 2.25l-.75.5.65.8v.1q0 1.05-1.45 2.05-3.95 2.5-9.65-3.15Q3.75 3.6 6-5.45l.9-4.85-.1-3.9v-.6l.3-.35q.8-.65 1.6-.3" fill="#fff" transform="translate(19.3 16.5)"/><path d="M8.35-14.95q1.8.9 1.55 2.95l.3 2.45 1.65-1 .55-.05q.9.75.25 3.25l-.05 2.7 1.75-1 .7.2Q16.1-4.3 14.9-1.6L14.35.85l1.9-.45h.65l-.8 3 1.6-.3.1.2.05.45q0 1.2-.55 1.75l-1.05 1.6.75.35-.05.8q-.2.75-1.25 1.35-1.05.7-2.9.4-1.65-.25-1.8-.7.7 0 .95-.95.2-.9-.15-1.65-.2-.55-.7-.5l-.4.15q.4-1 0-1.55l-1.15-.85q1-1.75.3-2.6l-1.6-.8q.55-2.25.1-3.3-.3-.65-1.1-.65l-.75.15 1.45-6.5L8-11.4l-.15-2.4q.2-1.3.5-1.15" fill="#cbcbcb" transform="translate(19.3 16.5)"/><path d="m10.45-12.7.45-.25q.5-.05.45 1-.2 3.25-3.25 9.85 1.9-5.35 2.3-8.5l.05-2.1m3 4.4.5-.15q.45.05.25 1.05-.75 3.2-4.9 9.15 4.45-7.9 4.15-10.05M16-2.85l.45.1q.35.2 0 1Q15.4.7 10.7 4.9 15.85-.8 16-2.85m1.65 3 .45.1q.35.2 0 1-.95 2.25-4.85 4.9 4.3-3.65 4.4-6m.7 4.9.35.25q.25.35-.4.95-1 1.05-4.25 2.05 2.95-1.45 4.3-3.25" transform="translate(19.3 16.5)"/><path d="M10-8.8q-.25 2.35-1.7 5.95l-.75-.55q.8-.7 2.45-5.4m-.45 10L8.8.65q.8-.7 3.5-5.1-.9 2.35-2.75 5.65M14.2.3Q13 2.6 10.8 4.75l-.75-.6L14.2.3m1.2 3.6Q13.7 6 11.55 6.95l-.75-.6q1.9-.55 4.6-2.45m.3 3.4q-2.3 1.45-3.8 1.35l-.5-.85 4.3-.5" fill="#fff" transform="translate(19.3 16.5)"/><path d="M-1.9 1.05-.45-1-.4.1l-.65.95h-.85" fill="#ff9aff" transform="translate(19.3 16.5)"/></g></defs></svg>

<?xml version="1.0" encoding="UTF-8" standalone="no"?>
<svg xmlns:xlink="http://www.w3.org/1999/xlink" height="92.9px" width="100.7px" xmlns="http://www.w3.org/2000/svg">
  <g transform="matrix(1.0, 0.0, 0.0, 1.0, 38.65, 49.75)">
    <use height="35.9" transform="matrix(1.0, 0.0, 0.0, 1.0, -19.3, -16.5)" width="38.6" xlink:href="#shape0"/>
  </g>
  <defs>
    <g id="shape0" transform="matrix(1.0, 0.0, 0.0, 1.0, 19.3, 16.5)">
      <path d="M-1.25 -5.7 L-0.45 -7.7 0.5 -5.7 Q2.55 -0.65 6.05 2.25 12.2 7.5 13.95 10.15 14.75 11.35 14.75 13.05 14.75 14.3 14.25 15.35 12.6 18.7 6.7 19.2 L4.35 19.4 6.05 17.75 Q9.2 14.7 9.1 11.3 9.1 8.85 7.2 7.2 5.6 5.75 3.85 5.9 2.55 6.0 1.25 7.05 L0.2 8.05 -0.5 8.95 -1.15 8.05 Q-2.6 6.1 -4.6 5.9 -6.25 5.65 -7.95 7.2 -9.75 8.85 -9.85 11.3 -9.95 14.65 -6.75 17.75 L-5.1 19.4 -7.45 19.2 Q-13.3 18.7 -14.95 15.35 -15.5 14.3 -15.5 13.05 -15.5 11.35 -14.7 10.15 -12.9 7.4 -6.75 2.25 -3.35 -0.6 -1.25 -5.7" fill="#000000" fill-rule="evenodd" stroke="none"/>
      <path d="M-0.4 -5.5 L-0.35 -5.6 -0.35 -5.5 Q2.15 0.1 5.5 2.95 11.5 7.95 13.25 10.6 14.5 12.5 13.55 14.8 12.25 17.9 6.65 18.4 9.55 15.55 9.95 12.3 10.35 8.85 7.8 6.6 5.0 4.05 2.0 5.55 L-0.45 7.55 Q-1.35 6.3 -2.8 5.55 -5.7 4.05 -8.5 6.6 -11.05 8.85 -10.65 12.3 -10.25 15.55 -7.35 18.4 -12.95 17.9 -14.3 14.8 -15.25 12.5 -14.0 10.6 -12.1 7.85 -6.2 2.95 -2.45 -0.3 -0.4 -5.5" fill="#ffc032" fill-rule="evenodd" stroke="none"/>
      <path d="M-7.35 18.4 L-11.05 17.7 Q-14.7 16.3 -14.6 12.85 -14.55 10.7 -12.1 8.1 L-9.65 5.95 -10.8 7.2 Q-12.1 8.75 -12.6 10.3 -14.15 15.3 -7.35 18.4" fill="#ffff9a" fill-rule="evenodd" stroke="none"/>
      <path d="M-0.35 -5.9 L-0.45 -2.6 -2.95 1.0 -1.7 2.75 -3.4 2.45 Q-5.25 2.35 -6.8 3.5 -4.5 1.7 -2.55 -1.3 -0.7 -4.1 -0.35 -5.9" fill="#ffff9a" fill-rule="evenodd" stroke="none"/>
      <path d="M0.4 6.55 L-0.45 7.55 -0.45 4.9 1.8 1.35 6.15 4.8 Q8.9 6.35 9.8 9.4 7.05 4.4 3.7 5.05 1.65 5.45 0.4 6.55" fill="#c27400" fill-rule="evenodd" stroke="none"/>
      <path d="M-0.4 4.25 L-2.5 1.2 -0.4 -2.0 1.5 1.2 -0.4 4.25" fill="#c2289a" fill-rule="evenodd" stroke="none"/>
      <path d="M-2.5 1.1 L-0.4 -2.0 -0.45 1.1 -2.5 1.1" fill="#ff4eff" fill-rule="evenodd" stroke="none"/>
      <path d="M-0.4 1.1 L1.5 1.1 -0.4 4.25 -0.4 1.1" fill="#6f0ab1" fill-rule="evenodd" stroke="none"/>
      <path d="M6.65 18.4 Q10.95 14.65 9.8 9.4 11.25 12.8 10.9 14.5 10.4 16.75 6.65 18.4" fill="#ffff9a" fill-rule="evenodd" stroke="none"/>
      <path d="M-8.3 6.4 Q-11.15 8.45 -10.4 12.6 -10.0 14.7 -9.05 16.35 -10.25 14.75 -10.85 12.6 -12.05 8.3 -9.1 5.7 -6.2 3.15 -3.35 4.8 -1.9 5.6 -1.05 6.95 -3.75 3.2 -8.3 6.4" fill="#c27400" fill-rule="evenodd" stroke="none"/>
      <path d="M10.65 7.7 L12.35 9.5 Q14.25 11.85 13.9 13.35 13.0 17.75 6.75 18.35 11.85 16.95 12.6 13.55 13.25 10.65 10.65 7.7" fill="#c27400" fill-rule="evenodd" stroke="none"/>
      <path d="M-9.95 -15.45 Q-8.3 -17.35 -6.5 -15.8 -5.8 -15.2 -5.85 -14.4 L-6.0 -10.35 Q-5.85 -8.05 -4.2 -1.6 -3.2 4.3 -5.85 6.9 -11.55 12.5 -15.9 10.5 -17.45 9.8 -18.15 8.45 -18.8 7.15 -18.15 6.65 -19.2 5.9 -19.3 4.0 -19.45 1.95 -18.0 1.7 -19.4 -1.1 -16.25 -1.05 -17.35 -3.55 -16.65 -5.5 -15.95 -7.45 -14.1 -7.05 -14.7 -9.5 -13.85 -11.0 -13.05 -12.6 -11.35 -11.85 -11.5 -13.75 -9.95 -15.45" fill="#000000" fill-rule="evenodd" stroke="none"/>
      <path d="M-8.65 -15.45 Q-7.85 -15.8 -7.05 -15.15 L-6.7 -14.8 -6.75 -14.2 -6.85 -10.3 -5.9 -5.45 Q-3.75 3.65 -6.45 6.25 -12.15 11.9 -16.15 9.4 -17.6 8.4 -17.6 7.35 L-17.6 7.25 -16.95 6.45 -17.7 5.95 Q-18.45 5.4 -18.45 3.7 L-18.4 3.15 Q-18.3 2.7 -17.85 2.55 L-16.75 2.35 -17.25 1.35 -17.55 0.3 -17.55 0.05 -16.3 -0.2 -14.9 -0.15 -15.5 -1.4 Q-16.75 -4.25 -15.55 -5.85 -15.05 -6.45 -14.3 -6.2 L-12.95 -5.9 -13.25 -7.25 Q-13.9 -10.05 -12.8 -11.05 L-11.65 -11.1 -10.4 -10.55 -10.5 -11.95 Q-10.7 -14.35 -8.65 -15.45" fill="#ffffff" fill-rule="evenodd" stroke="none"/>
      <path d="M-8.3 -14.95 Q-8.0 -15.1 -7.8 -13.8 L-7.95 -11.4 -7.9 -9.75 -6.45 -3.25 -7.2 -3.4 Q-8.0 -3.4 -8.3 -2.75 -8.75 -1.7 -8.2 0.55 L-9.8 1.35 Q-10.5 2.2 -9.5 3.95 L-10.65 4.8 Q-11.05 5.35 -10.65 6.35 L-11.05 6.2 Q-11.55 6.15 -11.8 6.7 -12.1 7.45 -11.9 8.35 -11.65 9.3 -10.95 9.3 -11.15 9.75 -12.8 10.0 -14.65 10.3 -15.7 9.6 -16.75 9.0 -16.95 8.25 L-17.0 7.45 -16.25 7.1 -17.3 5.5 Q-17.85 4.95 -17.85 3.75 L-17.8 3.3 -17.7 3.1 -16.1 3.4 -16.9 0.4 -16.25 0.4 -14.35 0.85 -14.9 -1.6 Q-16.05 -4.2 -15.05 -5.45 L-14.35 -5.65 -12.55 -4.65 -12.65 -7.35 Q-13.2 -9.85 -12.35 -10.6 L-11.85 -10.55 -10.15 -9.55 -9.85 -12.0 Q-10.1 -14.05 -8.3 -14.95" fill="#cbcbcb" fill-rule="evenodd" stroke="none"/>
      <path d="M-10.4 -12.7 L-10.35 -10.6 Q-9.9 -7.45 -8.05 -2.1 -11.1 -8.7 -11.3 -11.95 -11.35 -13.0 -10.9 -12.95 L-10.4 -12.7" fill="#000000" fill-rule="evenodd" stroke="none"/>
      <path d="M-13.45 -8.3 L-13.0 -6.25 Q-12.05 -3.2 -9.25 1.75 -13.4 -4.2 -14.2 -7.4 -14.4 -8.4 -13.95 -8.45 L-13.45 -8.3" fill="#000000" fill-rule="evenodd" stroke="none"/>
      <path d="M-16.0 -2.85 L-15.25 -1.1 Q-13.9 1.35 -10.65 4.9 -15.4 0.7 -16.45 -1.75 -16.8 -2.55 -16.45 -2.75 L-16.0 -2.85" fill="#000000" fill-rule="evenodd" stroke="none"/>
      <path d="M-17.65 0.15 L-17.05 1.8 Q-15.9 3.85 -13.2 6.15 -17.15 3.5 -18.1 1.25 -18.45 0.45 -18.1 0.25 L-17.65 0.15" fill="#000000" fill-rule="evenodd" stroke="none"/>
      <path d="M-18.35 5.05 L-17.3 6.15 -14.05 8.3 Q-17.3 7.3 -18.3 6.25 -18.9 5.65 -18.7 5.3 L-18.35 5.05" fill="#000000" fill-rule="evenodd" stroke="none"/>
      <path d="M-9.95 -8.8 L-7.5 -3.4 -8.25 -2.85 Q-9.75 -6.45 -9.95 -8.8" fill="#ffffff" fill-rule="evenodd" stroke="none"/>
      <path d="M-9.5 1.2 Q-11.35 -2.1 -12.25 -4.45 L-8.75 0.65 -9.5 1.2" fill="#ffffff" fill-rule="evenodd" stroke="none"/>
      <path d="M-14.2 0.3 L-10.0 4.15 -10.75 4.75 Q-12.95 2.6 -14.2 0.3" fill="#ffffff" fill-rule="evenodd" stroke="none"/>
      <path d="M-15.4 3.9 L-10.75 6.35 -11.55 6.95 Q-13.7 6.0 -15.4 3.9" fill="#ffffff" fill-rule="evenodd" stroke="none"/>
      <path d="M-15.7 7.3 L-11.35 7.8 -11.85 8.65 Q-13.4 8.75 -15.7 7.3" fill="#ffffff" fill-rule="evenodd" stroke="none"/>
      <path d="M2.45 5.35 L-0.4 7.45 0.1 6.15 Q0.85 4.75 2.15 4.45 4.3 4.0 6.05 5.5 L2.45 5.35" fill="#925100" fill-rule="evenodd" stroke="none"/>
      <path d="M10.0 -15.45 Q11.55 -13.75 11.35 -11.85 13.05 -12.6 13.9 -11.0 14.7 -9.5 14.1 -7.05 15.95 -7.45 16.7 -5.5 17.4 -3.55 16.25 -1.05 19.4 -1.1 18.0 1.7 19.4 1.95 19.3 4.0 19.15 5.95 18.15 6.65 18.8 7.15 18.15 8.45 17.45 9.8 15.95 10.5 11.55 12.5 5.9 6.9 3.25 4.3 4.25 -1.6 5.95 -8.05 6.05 -10.35 L5.95 -14.4 Q5.85 -15.2 6.55 -15.8 8.35 -17.35 10.0 -15.45" fill="#000000" fill-rule="evenodd" stroke="none"/>
      <path d="M8.7 -15.45 Q10.65 -14.4 10.55 -11.95 L10.4 -10.55 11.7 -11.1 12.8 -11.05 Q13.9 -10.1 13.3 -7.25 L12.95 -5.9 14.3 -6.2 Q15.05 -6.4 15.55 -5.85 16.75 -4.25 15.5 -1.4 L14.95 -0.15 16.3 -0.2 17.55 0.05 17.55 0.3 17.25 1.35 16.75 2.35 17.85 2.55 Q18.3 2.7 18.4 3.15 L18.45 3.7 Q18.45 5.4 17.7 5.95 L16.95 6.45 17.6 7.25 17.6 7.35 Q17.6 8.4 16.15 9.4 12.2 11.9 6.5 6.25 3.75 3.6 6.0 -5.45 L6.9 -10.3 6.8 -14.2 6.8 -14.8 7.1 -15.15 Q7.9 -15.8 8.7 -15.45" fill="#ffffff" fill-rule="evenodd" stroke="none"/>
      <path d="M8.35 -14.95 Q10.15 -14.05 9.9 -12.0 L10.2 -9.55 11.85 -10.55 12.4 -10.6 Q13.3 -9.85 12.65 -7.35 L12.6 -4.65 14.35 -5.65 15.05 -5.45 Q16.1 -4.3 14.9 -1.6 L14.35 0.85 16.25 0.4 16.9 0.4 16.1 3.4 17.7 3.1 17.8 3.3 17.85 3.75 Q17.85 4.95 17.3 5.5 L16.25 7.1 17.0 7.45 16.95 8.25 Q16.75 9.0 15.7 9.6 14.65 10.3 12.8 10.0 11.15 9.75 11.0 9.3 11.7 9.3 11.95 8.35 12.15 7.45 11.8 6.7 11.6 6.15 11.1 6.2 L10.7 6.35 Q11.1 5.35 10.7 4.8 L9.55 3.95 Q10.55 2.2 9.85 1.35 L8.25 0.55 Q8.8 -1.7 8.35 -2.75 8.05 -3.4 7.25 -3.4 L6.5 -3.25 7.95 -9.75 8.0 -11.4 7.85 -13.8 Q8.05 -15.1 8.35 -14.95" fill="#cbcbcb" fill-rule="evenodd" stroke="none"/>
      <path d="M10.45 -12.7 L10.9 -12.95 Q11.4 -13.0 11.35 -11.95 11.15 -8.7 8.1 -2.1 10.0 -7.45 10.4 -10.6 L10.45 -12.7" fill="#000000" fill-rule="evenodd" stroke="none"/>
      <path d="M13.45 -8.3 L13.95 -8.45 Q14.4 -8.4 14.2 -7.4 13.45 -4.2 9.3 1.75 13.75 -6.15 13.45 -8.3" fill="#000000" fill-rule="evenodd" stroke="none"/>
      <path d="M16.0 -2.85 L16.45 -2.75 Q16.8 -2.55 16.45 -1.75 15.4 0.7 10.7 4.9 15.85 -0.8 16.0 -2.85" fill="#000000" fill-rule="evenodd" stroke="none"/>
      <path d="M17.65 0.15 L18.1 0.25 Q18.45 0.45 18.1 1.25 17.15 3.5 13.25 6.15 17.55 2.5 17.65 0.15" fill="#000000" fill-rule="evenodd" stroke="none"/>
      <path d="M18.35 5.05 L18.7 5.3 Q18.95 5.65 18.3 6.25 17.3 7.3 14.05 8.3 17.0 6.85 18.35 5.05" fill="#000000" fill-rule="evenodd" stroke="none"/>
      <path d="M10.0 -8.8 Q9.75 -6.45 8.3 -2.85 L7.55 -3.4 Q8.35 -4.1 10.0 -8.8" fill="#ffffff" fill-rule="evenodd" stroke="none"/>
      <path d="M9.55 1.2 L8.8 0.65 Q9.6 -0.05 12.3 -4.45 11.4 -2.1 9.55 1.2" fill="#ffffff" fill-rule="evenodd" stroke="none"/>
      <path d="M14.2 0.3 Q13.0 2.6 10.8 4.75 L10.05 4.15 14.2 0.3" fill="#ffffff" fill-rule="evenodd" stroke="none"/>
      <path d="M15.4 3.9 Q13.7 6.0 11.55 6.95 L10.8 6.35 Q12.7 5.8 15.4 3.9" fill="#ffffff" fill-rule="evenodd" stroke="none"/>
      <path d="M15.7 7.3 Q13.4 8.75 11.9 8.65 L11.4 7.8 15.7 7.3" fill="#ffffff" fill-rule="evenodd" stroke="none"/>
      <path d="M-1.9 1.05 L-0.45 -1.0 -0.4 0.1 -1.05 1.05 -1.9 1.05" fill="#ff9aff" fill-rule="evenodd" stroke="none"/>
    </g>
  </defs>
</svg>
